!!!!SEGMENT: pl-sa--552-a-ix-32--006_anonim--anglaise.krn
!!!cenid: 18xx:517
!!!COM: Anonim
!!!COM-rismid: pe30004985
!!!CDT:
!!!CNT:
!!!OTL: Anglaise
!!!PDT:
!!!AGN: Secular; Anglaise
!!!SMS-siglum: PL-SA
!!!SMS-shelfmark: 552/A IX 32
!!!SMS-shelfwork: 006 W
!!!SMS-variant:
!!!SMS-altvar:
!!!NIFC-rismid: 1001069496
!!!system-decoration: {(s1,s2)}
**kern	**kern
*part2	*part1
*staff2	*staff1
*Iempty	*Ipiano
*	*I"Piano
*clefF4	*clefG2
*k[f#c#]	*k[f#c#]
*D:	*D:
*M2/4	*M2/4
*>[A,A,B]	*>[A,A,B]
=1	=1
*>A	*>A
!	!LO:TX:a:Bi:t=Anglaise:rj
4d\	8dd\L
.	8a\
4D\	8dd\
.	8ff#\J
=2	=2
4d\	4.aa\
4D\	.
.	8ff#\
=3	=3
4A\	8gg\L
.	8ff#\
4AA/	8gg 8ee\
.	8ee\J
=4	=4
4A\	8dd\L
.	8cc#\
4AA/	8b\
.	8a\J
=5	=5
4d\	8dd\L
.	8a\
4D\	8dd\
.	8ff#\J
=6	=6
4d\	4.aa\
4D\	.
.	8ff#\
=7	=7
4A\	8gg\L
.	8ee\
4AA/	8dd\
.	8cc#\J
=8	=8
4d\	4dd\
4D\	4r
=9:|!	=9:|!
*>B	*>B
4A\	8aa\L
.	8a\
4AA/	8gg\
.	8a\J
=10	=10
4D\	8ff#\L
.	8a\
4DD/	8dd\
.	8a\J
=11	=11
4A\	8cc#\L
.	8a\
4AA/	8ee\
.	8a\J
=12	=12
4D\	8dd\L
.	8a\
4DD/	8ff#\
.	8a\J
=13	=13
4A\	8aa\L
.	8a\
4AA/	8gg\
.	8a\J
=14	=14
4D\	8ff#\L
.	8a\
4DD/	8dd\
.	8a\J
=15	=15
4A\	8cc#\L
.	8a\
4AA/	8b\
.	8cc#\J
=16	=16
4D\	4dd\
4DD/	4r
!LO:TX:a:t=P:ozdobna kreska końcowa &colon;||&colon;:problem	!LO:TX:a:t=P:ozdobna kreska końcowa &colon;||&colon;:problem
==	==
*-	*-
!!title: @{OTL};
!!!RDF**kern: > = above
!!!RDF**kern: < = below
!!!EED: Wojciech Jakubiak-Danek
!!!EST: 2020-12-11
!!!URL-scan: http://bc.bdsandomierz.pl/dlibra/publication/1308/edition/1276/content
!!!ONB-nifc: Str. 4, s. 4
!!!ENC: Marta Chmielewska
!!!END: 2020-06-17
